actions/22x22-light/transform-rotate.svg

<svg xmlns="http://www.w3.org/2000/svg" viewBox="0 0 22 22">
 <defs id="defs3051">
   <style type="text/css" id="current-color-scheme">
     .ColorScheme-Text {
       color:#4d4d4d;
     }
     </style>
 </defs>
   <path
      style="fill:currentColor;fill-opacity:1;stroke:none"
      d="m3 3v16h1 6v-1h-6v-14h8v2 1 4h1v-3.8613281c1.726297.443692 3 1.9927781 3 3.8613281v1h-5v1 6h1 7v-1-5-1h-2v-1c0-2.427169-1.712639-4.4393956-4-4.9003906v-3.0996094h-9zm9 10h6v5h-6z"
      class="ColorScheme-Text" />
</svg>

<svg xmlns="http://www.w3.org/2000/svg" viewBox="0 0 22 22">
  <defs id="defs3051">
    <style type="text/css" id="current-color-scheme">
      .ColorScheme-Text {
        color:#4d4d4d;
      }
      </style>
  </defs>
 <path 
    style="fill:currentColor;fill-opacity:1;stroke:none" 
    d="M 3 3 L 3 19 L 4 19 L 10 19 L 10 18 L 4 18 L 4 4 L 12 4 L 12 6 L 12 7 L 12 11 L 13 11 L 13 7.1386719 C 14.726297 7.5823639 16 9.13145 16 11 L 16 12 L 11 12 L 11 13 L 11 19 L 12 19 L 19 19 L 19 18 L 19 13 L 19 12 L 17 12 L 17 11 C 17 8.572831 15.287361 6.5606044 13 6.0996094 L 13 3 L 4 3 L 3 3 z M 12 13 L 18 13 L 18 18 L 12 18 L 12 13 z "
	class="ColorScheme-Text"
    />  
</svg>
